X: 948
T: The Dandy Bonnet.
B:O'Neill's 948
N:"collected by J. O'Neill."
Z:Transcribed by Tom Keays (htkeays@mailbox.syr.edu)
Z:abc 1.6
M:6/8
R:Jig
L:1/8
K:A
e | cAA A2 E | Ace f2 d | cAA Ace | fdf e2 (f/g/) |
afa gec | fdf ecA | cAF EFG | ABA A2 :|
|| e | cAF ECE | AEA ecA | dBG GBc | dBf fed |
cAF ECE | AEA def | (e<a)c (B<d)G | ABA A2 :|


